img/home/icons/usp-1.svg

<svg height="61" viewBox="0 0 64 61" width="64" xmlns="http://www.w3.org/2000/svg"><path d="m271 652-7.553222 23.24943-24.446778-.005092 19.777884 14.375816-7.554071 23.251127 19.777884-14.368178 19.771944 14.369026-7.550676-23.247732 19.777035-14.369876-24.446778-.003394zm0 13.731742 4.471175 13.761443 14.473402.003394-11.708724 8.507027 4.469477 13.759746-11.703633-8.503633-11.707876 8.50533 4.471175-13.765685-11.708724-8.509573 14.472553.001697z" fill="#fff" fill-rule="evenodd" transform="translate(-239 -652)"/></svg>

<?xml version="1.0" encoding="UTF-8"?>
<svg width="64px" height="61px" viewBox="0 0 64 61" version="1.1" xmlns="http://www.w3.org/2000/svg" xmlns:xlink="http://www.w3.org/1999/xlink">
    <!-- Generator: Sketch 51.3 (57544) - http://www.bohemiancoding.com/sketch -->
    <title>Fill 1</title>
    <desc>Created with Sketch.</desc>
    <defs></defs>
    <g id="Home-&amp;-Quote" stroke="none" stroke-width="1" fill="none" fill-rule="evenodd">
        <g id="TT-Home-01" transform="translate(-239.000000, -652.000000)" fill="#FFFFFF">
            <path d="M271,652 L263.446778,675.24943 L239,675.244338 L258.777884,689.620154 L251.223813,712.871281 L271.001697,698.503103 L290.773641,712.872129 L283.222965,689.624397 L303,675.254521 L278.553222,675.251127 L271,652 Z M271,665.731742 L275.471175,679.493185 L289.944577,679.496579 L278.235853,688.003606 L282.70533,701.763352 L271.001697,693.259719 L259.293821,701.765049 L263.764996,687.999364 L252.056272,679.489791 L266.528825,679.491488 L271,665.731742 Z" id="Fill-1"></path>
        </g>
    </g>
</svg>
